img/icons/logo_basket.svg

<svg width="29" height="26" viewBox="0 0 29 26" fill="none" xmlns="http://www.w3.org/2000/svg">
<path fill-rule="evenodd" clip-rule="evenodd" d="M25.6661 7.35387L25.6495 7.33371C25.5629 7.22873 25.4551 7.14137 25.3577 7.0885C25.3031 7.05885 25.2698 7.04932 25.2587 7.04665H8.98878L11.3397 15.9473C11.3608 16.0283 11.4119 16.1088 11.4953 16.1711C11.579 16.2336 11.6882 16.2718 11.8062 16.2727H23.1427C23.4121 16.2727 23.5666 16.0997 23.596 15.9792L23.5989 15.9673L25.7379 7.62085L25.7416 7.60739C25.7521 7.56846 25.7527 7.52846 25.7437 7.48954C25.7345 7.4505 25.7151 7.41046 25.6832 7.37364L25.6661 7.35387ZM11.801 18.4545C11.1922 18.4526 10.6015 18.2574 10.1227 17.8999C9.64395 17.5425 9.30446 17.0433 9.15815 16.4816L5.68997 3.35078C5.63825 3.16686 5.53387 3.01065 5.39532 2.89494C5.22915 2.75616 5.01382 2.67564 4.78125 2.67541L1.88128 2.6754C1.39891 2.67487 1 2.29633 1 1.8377C1.00107 1.61601 1.09412 1.40367 1.25894 1.24682C1.42376 1.08997 1.64704 1.00127 1.88026 1H4.78024C5.38889 1.00193 5.98046 1.19699 6.45923 1.55424C6.91677 1.89565 7.24717 2.3665 7.40344 2.8977C7.40595 2.90625 7.40842 2.91481 7.41085 2.92339C7.41541 2.93955 7.41982 2.95576 7.42406 2.97203L7.96381 4.86483H25.2732C26.0986 4.86483 26.8945 5.34987 27.4068 5.97114C27.6672 6.2721 27.8493 6.62724 27.9381 7.00768C28.0269 7.38812 28.0201 7.78312 27.918 8.16057L25.7855 16.4816C25.5019 17.6439 24.3929 18.4545 23.1427 18.4545H11.801Z" fill="#141414"/>
<path fill-rule="evenodd" clip-rule="evenodd" d="M12.25 25C13.4926 25 14.5 24.0232 14.5 22.8182C14.5 21.6132 13.4926 20.6364 12.25 20.6364C11.0074 20.6364 10 21.6132 10 22.8182C10 24.0232 11.0074 25 12.25 25Z" fill="#141414"/>
<path fill-rule="evenodd" clip-rule="evenodd" d="M22.375 25C23.6176 25 24.625 24.0232 24.625 22.8182C24.625 21.6132 23.6176 20.6364 22.375 20.6364C21.1324 20.6364 20.125 21.6132 20.125 22.8182C20.125 24.0232 21.1324 25 22.375 25Z" fill="#141414"/>
<path d="M4.78125 2.67541C5.01382 2.67564 5.22915 2.75616 5.39532 2.89494C5.53387 3.01065 5.63825 3.16686 5.68997 3.35078L9.15815 16.4816C9.30446 17.0433 9.64395 17.5425 10.1227 17.8999C10.6015 18.2574 11.1922 18.4526 11.801 18.4545H23.1427C24.3929 18.4545 25.5019 17.6439 25.7855 16.4816L27.918 8.16057C28.0201 7.78313 28.0269 7.38812 27.9381 7.00768C27.8493 6.62724 27.6672 6.2721 27.4068 5.97114C26.8945 5.34987 26.0986 4.86483 25.2732 4.86483H7.96381L7.42406 2.97203C7.41982 2.95576 7.41541 2.93955 7.41085 2.92339C7.40842 2.91481 7.40595 2.90625 7.40344 2.8977C7.24717 2.3665 6.91677 1.89565 6.45923 1.55424C5.98046 1.19699 5.38889 1.00193 4.78024 1H1.88026C1.64704 1.00127 1.42376 1.08997 1.25894 1.24682C1.09412 1.40367 1.00107 1.61601 1 1.8377C1 2.29633 1.39891 2.67487 1.88128 2.6754M4.78125 2.67541V2.67541ZM4.78125 2.67541L1.88128 2.6754M1.88128 2.6754V2.6754ZM25.6495 7.33371L25.6661 7.35387L25.6832 7.37364C25.7151 7.41046 25.7345 7.4505 25.7437 7.48954C25.7527 7.52846 25.7521 7.56846 25.7416 7.60739L25.7379 7.62085L23.5989 15.9673L23.596 15.9792C23.5666 16.0997 23.4121 16.2727 23.1427 16.2727H11.8062C11.6882 16.2718 11.579 16.2336 11.4953 16.1711C11.4119 16.1088 11.3608 16.0283 11.3397 15.9473L8.98878 7.04665H25.2587C25.2698 7.04932 25.3031 7.05885 25.3577 7.0885C25.4551 7.14137 25.5629 7.22873 25.6495 7.33371ZM14.5 22.8182C14.5 24.0232 13.4926 25 12.25 25C11.0074 25 10 24.0232 10 22.8182C10 21.6132 11.0074 20.6364 12.25 20.6364C13.4926 20.6364 14.5 21.6132 14.5 22.8182ZM24.625 22.8182C24.625 24.0232 23.6176 25 22.375 25C21.1324 25 20.125 24.0232 20.125 22.8182C20.125 21.6132 21.1324 20.6364 22.375 20.6364C23.6176 20.6364 24.625 21.6132 24.625 22.8182Z" stroke="#141414" stroke-width="0.5"/>
</svg>

<svg width="29" height="26" fill="none" xmlns="http://www.w3.org/2000/svg"><path fill-rule="evenodd" clip-rule="evenodd" d="M25.666 7.354l-.017-.02a1.04 1.04 0 00-.291-.245.428.428 0 00-.1-.042H8.989l2.352 8.9a.411.411 0 00.155.224c.084.063.193.1.311.102h11.337c.27 0 .424-.173.453-.294l.003-.012 2.139-8.346.004-.014a.241.241 0 00.002-.117.273.273 0 00-.06-.116l-.018-.02zm-13.865 11.1a2.823 2.823 0 01-1.678-.554 2.589 2.589 0 01-.965-1.418L5.69 3.35a.914.914 0 00-.295-.456.956.956 0 00-.614-.22h-2.9C1.4 2.675 1 2.296 1 1.838a.821.821 0 01.259-.591A.909.909 0 011.88 1h2.9c.609.002 1.2.197 1.68.554a2.594 2.594 0 01.964 1.418l.54 1.893h17.31c.825 0 1.62.485 2.133 1.106.26.301.442.656.531 1.037.089.38.082.775-.02 1.153l-2.133 8.32c-.283 1.163-1.392 1.973-2.642 1.973H11.8zM12.25 25c1.243 0 2.25-.977 2.25-2.182s-1.007-2.182-2.25-2.182-2.25.977-2.25 2.182S11.007 25 12.25 25zm10.125 0c1.243 0 2.25-.977 2.25-2.182s-1.007-2.182-2.25-2.182-2.25.977-2.25 2.182S21.132 25 22.375 25z" fill="#141414"/><path d="M4.781 2.675c.233 0 .448.081.614.22a.914.914 0 01.295.456l3.468 13.13a2.59 2.59 0 00.965 1.419c.479.357 1.07.553 1.678.555h11.342c1.25 0 2.359-.811 2.642-1.973l2.133-8.321c.102-.378.109-.773.02-1.153a2.429 2.429 0 00-.531-1.037c-.512-.621-1.308-1.106-2.134-1.106H7.963l-.539-1.893a2.508 2.508 0 00-.02-.074 2.594 2.594 0 00-.945-1.344A2.827 2.827 0 004.78 1h-2.9a.909.909 0 00-.621.247.821.821 0 00-.259.59c0 .46.399.838.881.838m2.9 0v0zm0 0h-2.9m0 0v0zM25.65 7.334l.017.02.017.02a.273.273 0 01.06.116.241.241 0 01-.001.117l-.004.014-2.14 8.346-.002.012c-.03.12-.184.294-.453.294H11.806a.528.528 0 01-.31-.102.411.411 0 01-.156-.224l-2.351-8.9h16.27a.428.428 0 01.099.042c.097.052.205.14.291.245zM14.5 22.818c0 1.205-1.007 2.182-2.25 2.182S10 24.023 10 22.818s1.007-2.182 2.25-2.182 2.25.977 2.25 2.182zm10.125 0c0 1.205-1.007 2.182-2.25 2.182s-2.25-.977-2.25-2.182 1.007-2.182 2.25-2.182 2.25.977 2.25 2.182z" stroke="#141414" stroke-width=".5"/></svg>
